logo.svg

<?xml version="1.0" encoding="UTF-8" standalone="no"?>
<svg
   xmlns:dc="http://purl.org/dc/elements/1.1/"
   xmlns:cc="http://creativecommons.org/ns#"
   xmlns:rdf="http://www.w3.org/1999/02/22-rdf-syntax-ns#"
   xmlns:svg="http://www.w3.org/2000/svg"
   xmlns="http://www.w3.org/2000/svg"
   xmlns:sodipodi="http://sodipodi.sourceforge.net/DTD/sodipodi-0.dtd"
   xmlns:inkscape="http://www.inkscape.org/namespaces/inkscape"
   width="210mm"
   height="297mm"
   viewBox="0 0 793.70079 1122.5197"
   version="1.1"
   xml:space="preserve"
   style="clip-rule:evenodd;fill-rule:evenodd;stroke-linejoin:round;stroke-miterlimit:2"
   id="svg8491"
   sodipodi:docname="Favicon_02.svg"
   inkscape:version="0.92.3 (2405546, 2018-03-11)"><metadata
   id="metadata8497"><rdf:RDF><cc:Work
       rdf:about=""><dc:format>image/svg+xml</dc:format><dc:type
         rdf:resource="http://purl.org/dc/dcmitype/StillImage" /><dc:title></dc:title><cc:license
         rdf:resource="http://creativecommons.org/licenses/by-nc/4.0/" /></cc:Work><cc:License
       rdf:about="http://creativecommons.org/licenses/by-nc/4.0/"><cc:permits
         rdf:resource="http://creativecommons.org/ns#Reproduction" /><cc:permits
         rdf:resource="http://creativecommons.org/ns#Distribution" /><cc:requires
         rdf:resource="http://creativecommons.org/ns#Notice" /><cc:requires
         rdf:resource="http://creativecommons.org/ns#Attribution" /><cc:prohibits
         rdf:resource="http://creativecommons.org/ns#CommercialUse" /><cc:permits
         rdf:resource="http://creativecommons.org/ns#DerivativeWorks" /></cc:License></rdf:RDF></metadata><defs
   id="defs8495" /><sodipodi:namedview
   pagecolor="#ffffff"
   bordercolor="#666666"
   borderopacity="1"
   objecttolerance="10"
   gridtolerance="10"
   guidetolerance="10"
   inkscape:pageopacity="0"
   inkscape:pageshadow="2"
   inkscape:window-width="1920"
   inkscape:window-height="1132"
   id="namedview8493"
   showgrid="false"
   units="mm"
   inkscape:pagecheckerboard="false"
   inkscape:zoom="1.84375"
   inkscape:cx="256"
   inkscape:cy="256"
   inkscape:window-x="0"
   inkscape:window-y="39"
   inkscape:window-maximized="1"
   inkscape:current-layer="svg8491" />
    <g
   transform="matrix(7.96204,0,0,8.02928,-332.445,513.56079)"
   id="g8452">
        <path
   d="m 74.146,21.474 c 8.107,0.077 15.948,4.846 19.734,11.915 3.555,6.635 3.481,15.007 -0.196,21.581 C 89.193,62.999 79.411,67.855 70.012,66.174 61.351,64.626 54.006,57.584 52.041,49.083 50.292,41.514 52.78,33.107 58.451,27.7 62.6,23.744 68.266,21.455 74.146,21.474 Z m -0.285,1.053 c -7.746,0.074 -15.195,4.636 -18.793,11.353 -3.389,6.326 -3.319,14.315 0.187,20.582 4.256,7.61 13.532,12.287 22.541,10.676 8.241,-1.474 15.245,-8.184 17.118,-16.289 1.669,-7.221 -0.705,-15.238 -6.111,-20.393 -3.952,-3.768 -9.342,-5.947 -14.942,-5.929 z"
   style="fill:#dc0067"
   id="path8450"
   inkscape:connector-curvature="0" />
    </g>
    <g
   transform="matrix(7.90253,0,0,7.91208,-328.789,518.71689)"
   id="g8456">
        <path
   d="m 74.206,12.109 c 14.417,0.137 28.019,11.058 31.026,25.28 2.249,10.639 -1.377,22.311 -9.341,29.814 C 87.089,75.496 73.357,78.202 61.928,73.528 52.31,69.595 44.909,60.741 42.768,50.611 40.534,40.042 44.101,28.431 51.97,20.928 c 5.787,-5.517 13.666,-8.742 21.824,-8.819 0.137,-10e-4 0.275,-10e-4 0.412,0 z m -0.375,5.783 c -11.856,0.113 -22.891,9.066 -25.346,20.682 -1.831,8.659 1.09,18.185 7.536,24.331 7.094,6.763 18.212,9.071 27.527,5.396 C 91.51,65.159 97.67,57.895 99.481,49.584 101.974,38.145 95.739,25.342 85.004,20.326 81.528,18.702 77.706,17.88 73.831,17.892 Z"
   style="fill:#dc0067"
   id="path8454"
   inkscape:connector-curvature="0" />
    </g>
    <g
   id="g8475"
   transform="translate(0,610.51969)">
        <clipPath
   id="_clip1">
            <path
   d="m 254.665,49.764 c -93.694,0.892 -180.897,71.725 -200.302,163.637 -14.464,68.506 8.617,143.876 59.558,192.506 56.055,53.511 143.921,71.773 217.532,42.69 C 394.374,423.738 443.052,366.264 457.364,300.513 477.066,210.001 427.793,108.703 342.958,69.018 315.487,56.168 285.286,49.667 254.665,49.764 Z"
   id="path8458"
   inkscape:connector-curvature="0" />
        </clipPath>
        <g
   clip-path="url(#_clip1)"
   id="g8473">
            <g
   transform="matrix(0.682363,0,0,0.682363,-43.2932,200.459)"
   id="g8463">
                <path
   d="M 825,694.5 H 114 l -2.114,-0.422 -1.789,-1.202 -1.189,-1.798 -0.408,-2.116 1,-144 c 0.085,-0.538 0.091,-1.095 0.254,-1.615 0.445,-1.412 0.857,-1.617 1.835,-2.662 L 276.5,410.337 V 354 l 0.226,-1.561 c 0.658,-1.427 0.664,-1.437 1.699,-2.619 l 74.075,-63.353 0.22,-2.008 c 0.641,-1.413 0.647,-1.422 1.658,-2.598 l 33.587,-29.389 c -0.2,-0.157 -0.398,-0.316 -0.595,-0.477 -2.681,-2.199 -5.163,-4.739 -6.884,-7.774 0,0 -6.085,0.495 -10.665,-2.141 -4.691,-2.699 -7.317,-8.074 -8.157,-13.527 -0.172,-1.119 -0.382,-1.352 -0.521,-1.832 -2.891,-10.157 -3.236,-20.933 -3.642,-31.595 L 356.5,67.043 l 0.45,-2.222 1.308,-1.851 14,-13 1.941,-1.167 2.248,-0.285 2.171,0.645 1.882,1.783 V 44 l 0.466,-2.215 1.318,-1.839 12,-11 1.92,-1.145 2.218,-0.285 8.972,0.69 0.499,-1.249 1.261,-1.888 1.915,-1.219 2.245,-0.341 c 11.666,0.667 23.333,1.333 35,2 2.038,0.5 3.926,1.457 4.726,3.29 0.268,0.614 0.303,1.304 0.455,1.957 l 1.789,40.27 12.408,1.306 3.709,-2.318 -0.898,-27.837 0.347,-2.108 3,-8 0.915,-1.578 c 0.46,-0.397 0.861,-0.877 1.38,-1.192 1.419,-0.862 1.928,-0.686 3.517,-0.759 l 33,4 c 1.319,0.421 2.68,0.886 3.552,1.926 0.93,1.108 1.312,2.72 1.75,4.034 H 520 c 2.156,0.417 4.155,1.341 5.011,3.232 0.287,0.634 0.322,1.354 0.484,2.031 l 6.006,139.137 c -0.143,20.481 -1.537,42.003 -11.666,59.538 -1.785,3.09 -3.953,5.997 -6.657,8.337 0,0 26.369,2.752 26.369,2.752 l 1.899,0.547 c 1.376,1.027 1.964,1.176 2.646,2.848 0.249,0.609 0.271,1.289 0.406,1.933 l 0.869,33.028 76.039,5.632 1.93,0.506 c 0.541,0.387 1.161,0.682 1.623,1.161 1.266,1.313 1.159,1.92 1.537,3.611 l 4.885,129.947 3.283,1.876 184.778,14.902 c 2.021,0.545 3.88,1.539 4.641,3.382 0.255,0.617 0.277,1.306 0.415,1.959 l 6,234 -0.377,2.148 -1.182,1.832 -1.802,1.229 z m -351.5,-447.577 5.793,0.579 c -0.984,-1.018 -1.291,-1.423 -1.868,-2.198 -0.908,-1.219 -1.989,-3.105 -1.989,-3.105 l -1.936,-0.176 z"
   id="path8461"
   inkscape:connector-curvature="0" />
            </g>
            <g
   transform="matrix(0.682363,0,0,0.682363,-43.2932,200.459)"
   id="g8467">
                <path
   d="m 417,33 28,2 5,131 c 1.439,14.012 6.196,22.184 21,23 9.612,0.53 16.098,-8.116 16,-19 l -4,-131 27,3 5,130 c -1.174,42.645 -27.279,47.734 -43,47 -36.613,-1.708 -51.063,-30.29 -51,-56 z"
   style="fill:#ffffff"
   id="path8465"
   inkscape:connector-curvature="0" />
            </g>
            <g
   transform="matrix(0.682363,0,0,0.682363,-43.2932,200.459)"
   id="g8471">
                <path
   d="m 387,46 10,-9 2,130 c 0.296,35.701 -4.568,59.657 -19,69 -9.159,5.93 -14.625,-8.334 -16,-38 l -1,-129 11,-10 1,130 c 0.249,7.595 0.751,17.022 4,16 3.539,-1.113 7.819,-10.41 8,-28 z"
   style="fill:#ffffff"
   id="path8469"
   inkscape:connector-curvature="0" />
            </g>
        </g>
    </g>
    <g
   transform="matrix(0.126795,0,0,0.126795,150.818,675.30309)"
   id="g8489">
        <g
   transform="scale(4.16667)"
   id="g8479">
            <path
   d="m 181.994,81.143 c 71.231,-5.129 144.114,21.519 194.947,71.711 6.661,6.859 5.792,18.855 -1.231,25.137 -6.461,7.609 -19.379,7.743 -26.039,0.332 -43.496,-41.867 -104.893,-64.509 -165.19,-60.004 -50.082,3.225 -98.605,24.795 -134.947,59.353 -3.231,3.302 -7.366,6.012 -12.116,6.248 -11.906,1.395 -22.917,-11.051 -20.347,-22.692 0.722,-4.183 3.406,-7.664 6.481,-10.449 42.552,-40.742 99.677,-65.762 158.442,-69.636 z"
   style="fill:#dc0067;fill-rule:nonzero"
   id="path8477"
   inkscape:connector-curvature="0" />
        </g>
        <g
   transform="scale(4.16667)"
   id="g8483">
            <path
   d="m 180.205,142.995 c 54.57,-5.938 111.235,14.18 149.85,53.172 6.036,6.893 5.283,18.164 -1.42,24.359 -6.114,7.484 -18.432,8.319 -25.365,1.536 -24.729,-24.376 -58.155,-39.848 -92.821,-42.387 -42.088,-3.489 -85.094,12.48 -115.063,42.139 -6.912,7.304 -19.788,6.473 -26.01,-1.296 -6.702,-6.329 -7.26,-17.905 -0.82,-24.61 29.703,-29.721 69.87,-48.628 111.649,-52.913 z"
   style="fill:#ffb400;fill-rule:nonzero"
   id="path8481"
   inkscape:connector-curvature="0" />
        </g>
        <g
   transform="scale(4.16667)"
   id="g8487">
            <path
   d="m 188.316,203.912 c 34.437,-3.42 70.043,9.769 93.999,34.708 6.568,6.827 5.807,18.582 -1.107,24.904 -6.27,7.572 -18.854,8.087 -25.677,0.983 -13.51,-13.867 -32.218,-22.629 -51.585,-23.683 -21.985,-1.568 -44.234,7.116 -59.847,22.567 -3.839,4.315 -9.541,6.96 -15.374,6.281 -13.561,-0.955 -22.968,-19.048 -13.629,-29.902 18.85,-20.448 45.635,-33.115 73.22,-35.858 z"
   style="fill:#ffb400;fill-rule:nonzero"
   id="path8485"
   inkscape:connector-curvature="0" />
        </g>
    </g>
</svg>

<?xml version="1.0" encoding="UTF-8" standalone="no"?>
<svg
   xmlns:dc="http://purl.org/dc/elements/1.1/"
   xmlns:cc="http://creativecommons.org/ns#"
   xmlns:rdf="http://www.w3.org/1999/02/22-rdf-syntax-ns#"
   xmlns:svg="http://www.w3.org/2000/svg"
   xmlns="http://www.w3.org/2000/svg"
   xmlns:sodipodi="http://sodipodi.sourceforge.net/DTD/sodipodi-0.dtd"
   xmlns:inkscape="http://www.inkscape.org/namespaces/inkscape"
   width="100%"
   height="100%"
   viewBox="0 0 512 512"
   version="1.1"
   xml:space="preserve"
   style="fill-rule:evenodd;clip-rule:evenodd;stroke-linejoin:round;stroke-miterlimit:2;"
   id="svg43"
   sodipodi:docname="Favicon_02.svg"
   inkscape:version="0.92.3 (2405546, 2018-03-11)"><metadata
   id="metadata49"><rdf:RDF><cc:Work
       rdf:about=""><dc:format>image/svg+xml</dc:format><dc:type
         rdf:resource="http://purl.org/dc/dcmitype/StillImage" /><dc:title></dc:title><cc:license
         rdf:resource="http://creativecommons.org/licenses/by-nc/4.0/" /></cc:Work><cc:License
       rdf:about="http://creativecommons.org/licenses/by-nc/4.0/"><cc:permits
         rdf:resource="http://creativecommons.org/ns#Reproduction" /><cc:permits
         rdf:resource="http://creativecommons.org/ns#Distribution" /><cc:requires
         rdf:resource="http://creativecommons.org/ns#Notice" /><cc:requires
         rdf:resource="http://creativecommons.org/ns#Attribution" /><cc:prohibits
         rdf:resource="http://creativecommons.org/ns#CommercialUse" /><cc:permits
         rdf:resource="http://creativecommons.org/ns#DerivativeWorks" /></cc:License></rdf:RDF></metadata><defs
   id="defs47" /><sodipodi:namedview
   pagecolor="#ffffff"
   bordercolor="#666666"
   borderopacity="1"
   objecttolerance="10"
   gridtolerance="10"
   guidetolerance="10"
   inkscape:pageopacity="0"
   inkscape:pageshadow="2"
   inkscape:window-width="1451"
   inkscape:window-height="942"
   id="namedview45"
   showgrid="false"
   inkscape:zoom="1.6984692"
   inkscape:cx="3.2264233"
   inkscape:cy="256"
   inkscape:window-x="0"
   inkscape:window-y="39"
   inkscape:window-maximized="0"
   inkscape:current-layer="svg43" />
    <g
   transform="matrix(7.96204,0,0,8.02928,-332.445,-96.9589)"
   id="g4">
        <path
   d="M74.146,21.474C82.253,21.551 90.094,26.32 93.88,33.389C97.435,40.024 97.361,48.396 93.684,54.97C89.193,62.999 79.411,67.855 70.012,66.174C61.351,64.626 54.006,57.584 52.041,49.083C50.292,41.514 52.78,33.107 58.451,27.7C62.6,23.744 68.266,21.455 74.146,21.474ZM73.861,22.527C66.115,22.601 58.666,27.163 55.068,33.88C51.679,40.206 51.749,48.195 55.255,54.462C59.511,62.072 68.787,66.749 77.796,65.138C86.037,63.664 93.041,56.954 94.914,48.849C96.583,41.628 94.209,33.611 88.803,28.456C84.851,24.688 79.461,22.509 73.861,22.527Z"
   style="fill:rgb(220,0,103);"
   id="path2" />
    </g>
    <g
   transform="matrix(7.90253,0,0,7.91208,-328.789,-91.8028)"
   id="g8">
        <path
   d="M74.206,12.109C88.623,12.246 102.225,23.167 105.232,37.389C107.481,48.028 103.855,59.7 95.891,67.203C87.089,75.496 73.357,78.202 61.928,73.528C52.31,69.595 44.909,60.741 42.768,50.611C40.534,40.042 44.101,28.431 51.97,20.928C57.757,15.411 65.636,12.186 73.794,12.109C73.931,12.108 74.069,12.108 74.206,12.109ZM73.831,17.892C61.975,18.005 50.94,26.958 48.485,38.574C46.654,47.233 49.575,56.759 56.021,62.905C63.115,69.668 74.233,71.976 83.548,68.301C91.51,65.159 97.67,57.895 99.481,49.584C101.974,38.145 95.739,25.342 85.004,20.326C81.528,18.702 77.706,17.88 73.831,17.892Z"
   style="fill:rgb(220,0,103);"
   id="path6" />
    </g>
    <g
   id="g27">
        <clipPath
   id="_clip1">
            <path
   d="M254.665,49.764C160.971,50.656 73.768,121.489 54.363,213.401C39.899,281.907 62.98,357.277 113.921,405.907C169.976,459.418 257.842,477.68 331.453,448.597C394.374,423.738 443.052,366.264 457.364,300.513C477.066,210.001 427.793,108.703 342.958,69.018C315.487,56.168 285.286,49.667 254.665,49.764Z"
   id="path10" />
        </clipPath>
        <g
   clip-path="url(#_clip1)"
   id="g25">
            <g
   transform="matrix(0.682363,0,0,0.682363,-43.2932,200.459)"
   id="g15">
                <path
   d="M825,694.5L114,694.5L111.886,694.078L110.097,692.876L108.908,691.078L108.5,688.962L109.5,544.962C109.585,544.424 109.591,543.867 109.754,543.347C110.199,541.935 110.611,541.73 111.589,540.685L276.5,410.337L276.5,354L276.726,352.439C277.384,351.012 277.39,351.002 278.425,349.82L352.5,286.467L352.72,284.459C353.361,283.046 353.367,283.037 354.378,281.861L387.965,252.472C387.765,252.315 387.567,252.156 387.37,251.995C384.689,249.796 382.207,247.256 380.486,244.221C380.486,244.221 374.401,244.716 369.821,242.08C365.13,239.381 362.504,234.006 361.664,228.553C361.492,227.434 361.282,227.201 361.143,226.721C358.252,216.564 357.907,205.788 357.501,195.126L356.5,67.043L356.95,64.821L358.258,62.97L372.258,49.97L374.199,48.803L376.447,48.518L378.618,49.163L380.5,50.946L380.5,44L380.966,41.785L382.284,39.946L394.284,28.946L396.204,27.801L398.422,27.516L407.394,28.206L407.893,26.957L409.154,25.069L411.069,23.85L413.314,23.509C424.98,24.176 436.647,24.842 448.314,25.509C450.352,26.009 452.24,26.966 453.04,28.799C453.308,29.413 453.343,30.103 453.495,30.756L455.284,71.026L467.692,72.332L471.401,70.014L470.503,42.177L470.85,40.069L473.85,32.069L474.765,30.491C475.225,30.094 475.626,29.614 476.145,29.299C477.564,28.437 478.073,28.613 479.662,28.54L512.662,32.54C513.981,32.961 515.342,33.426 516.214,34.466C517.144,35.574 517.526,37.186 517.964,38.5L520,38.5C522.156,38.917 524.155,39.841 525.011,41.732C525.298,42.366 525.333,43.086 525.495,43.763L531.501,182.9C531.358,203.381 529.964,224.903 519.835,242.438C518.05,245.528 515.882,248.435 513.178,250.775C513.178,250.775 539.547,253.527 539.547,253.527L541.446,254.074C542.822,255.101 543.41,255.25 544.092,256.922C544.341,257.531 544.363,258.211 544.498,258.855L545.367,291.883L621.406,297.515L623.336,298.021C623.877,298.408 624.497,298.703 624.959,299.182C626.225,300.495 626.118,301.102 626.496,302.793L631.381,432.74L634.664,434.616L819.442,449.518C821.463,450.063 823.322,451.057 824.083,452.9C824.338,453.517 824.36,454.206 824.498,454.859L830.498,688.859L830.121,691.007L828.939,692.839L827.137,694.068L825,694.5ZM473.5,246.923L479.293,247.502C478.309,246.484 478.002,246.079 477.425,245.304C476.517,244.085 475.436,242.199 475.436,242.199L473.5,242.023L473.5,246.923Z"
   id="path13" />
            </g>
            <g
   transform="matrix(0.682363,0,0,0.682363,-43.2932,200.459)"
   id="g19">
                <path
   d="M417,33L445,35L450,166C451.439,180.012 456.196,188.184 471,189C480.612,189.53 487.098,180.884 487,170L483,39L510,42L515,172C513.826,214.645 487.721,219.734 472,219C435.387,217.292 420.937,188.71 421,163L417,33Z"
   style="fill:white;"
   id="path17" />
            </g>
            <g
   transform="matrix(0.682363,0,0,0.682363,-43.2932,200.459)"
   id="g23">
                <path
   d="M387,46L397,37L399,167C399.296,202.701 394.432,226.657 380,236C370.841,241.93 365.375,227.666 364,198L363,69L374,59L375,189C375.249,196.595 375.751,206.022 379,205C382.539,203.887 386.819,194.59 387,177L387,46Z"
   style="fill:white;"
   id="path21" />
            </g>
        </g>
    </g>
    <g
   transform="matrix(0.126795,0,0,0.126795,150.818,64.7834)"
   id="g41">
        <g
   transform="matrix(4.16667,0,0,4.16667,0,0)"
   id="g31">
            <path
   d="M181.994,81.143C253.225,76.014 326.108,102.662 376.941,152.854C383.602,159.713 382.733,171.709 375.71,177.991C369.249,185.6 356.331,185.734 349.671,178.323C306.175,136.456 244.778,113.814 184.481,118.319C134.399,121.544 85.876,143.114 49.534,177.672C46.303,180.974 42.168,183.684 37.418,183.92C25.512,185.315 14.501,172.869 17.071,161.228C17.793,157.045 20.477,153.564 23.552,150.779C66.104,110.037 123.229,85.017 181.994,81.143Z"
   style="fill:rgb(220,0,103);fill-rule:nonzero;"
   id="path29" />
        </g>
        <g
   transform="matrix(4.16667,0,0,4.16667,0,0)"
   id="g35">
            <path
   d="M180.205,142.995C234.775,137.057 291.44,157.175 330.055,196.167C336.091,203.06 335.338,214.331 328.635,220.526C322.521,228.01 310.203,228.845 303.27,222.062C278.541,197.686 245.115,182.214 210.449,179.675C168.361,176.186 125.355,192.155 95.386,221.814C88.474,229.118 75.598,228.287 69.376,220.518C62.674,214.189 62.116,202.613 68.556,195.908C98.259,166.187 138.426,147.28 180.205,142.995Z"
   style="fill:rgb(255,180,0);fill-rule:nonzero;"
   id="path33" />
        </g>
        <g
   transform="matrix(4.16667,0,0,4.16667,0,0)"
   id="g39">
            <path
   d="M188.316,203.912C222.753,200.492 258.359,213.681 282.315,238.62C288.883,245.447 288.122,257.202 281.208,263.524C274.938,271.096 262.354,271.611 255.531,264.507C242.021,250.64 223.313,241.878 203.946,240.824C181.961,239.256 159.712,247.94 144.099,263.391C140.26,267.706 134.558,270.351 128.725,269.672C115.164,268.717 105.757,250.624 115.096,239.77C133.946,219.322 160.731,206.655 188.316,203.912Z"
   style="fill:rgb(255,180,0);fill-rule:nonzero;"
   id="path37" />
        </g>
    </g>
</svg>
